svg/black/xmr.svg

<svg xmlns="http://www.w3.org/2000/svg" width="32" height="32" viewBox="0 0 32 32">
  <path fill-rule="evenodd" d="M16,32 C7.163444,32 0,24.836556 0,16 C0,7.163444 7.163444,0 16,0 C24.836556,0 32,7.163444 32,16 C32,24.836556 24.836556,32 16,32 Z M15.9706667,5.23466667 C9.98666667,5.23466667 5.14666667,10.0746667 5.14666667,16.0586667 C5.14666667,17.2613333 5.352,18.4053333 5.704,19.4906667 L8.93066667,19.4906667 L8.93066667,10.3973333 L15.9706667,17.4373333 L23.0106667,10.3973333 L23.0106667,19.4906667 L26.2373333,19.4906667 C26.5893333,18.4053333 26.7946667,17.2613333 26.7946667,16.0586667 C26.7946667,10.0746667 21.9546667,5.23466667 15.9706667,5.23466667 Z M14.3573333,19.0213333 L11.2773333,15.9413333 L11.2773333,21.6613333 L10.104,21.6613333 L8.93066667,21.6613333 L6.73066667,21.6613333 C8.63733333,24.7706667 12.0693333,26.8533333 15.9706667,26.8533333 C19.872,26.8533333 23.3333333,24.7706667 25.2106667,21.6613333 L23.0106667,21.6613333 L20.8986667,21.6613333 L20.664,21.6613333 L20.664,15.9413333 L17.6133333,19.0213333 L16,20.6346667 L14.3573333,19.0213333 Z"/>
</svg>

<svg xmlns="http://www.w3.org/2000/svg" width="32" height="32"><path fill-rule="evenodd" d="M16 32C7.163 32 0 24.837 0 16S7.163 0 16 0s16 7.163 16 16-7.163 16-16 16zm-.03-26.765A10.816 10.816 0 0 0 5.148 16.059c0 1.202.205 2.346.557 3.432h3.227v-9.094l7.04 7.04 7.04-7.04v9.094h3.226a11.07 11.07 0 0 0 .558-3.432c0-5.984-4.84-10.824-10.824-10.824zM14.358 19.02l-3.08-3.08v5.72H6.731c1.906 3.11 5.338 5.192 9.24 5.192 3.901 0 7.362-2.082 9.24-5.192H20.664v-5.72l-3.05 3.08L16 20.635l-1.643-1.614z"/></svg>
